src/telerik-icons/solid/paste-sparkle.svg

<?xml version="1.0" encoding="utf-8"?>
<svg xmlns="http://www.w3.org/2000/svg" width="512" height="512" viewBox="0 0 512 512">
  <path d="M224 16c23.7 0 44.306 12.9 55.406 32h47.313l-20 50.719L191.906 144H128V80H64v384h320V336.093l32-81.218V464c0 17.699-14.301 32-32 32H64c-17.7 0-32-14.301-32-32V80c0-17.7 14.3-32 32-32h104.594C179.694 28.9 200.3 16 224 16m0 32c-17.7 0-32 14.3-32 32h64c0-17.7-14.3-32-32-32m144 0 31.674 80.325L480 160l-80.326 31.675L368 272l-31.675-80.325L256 160l80.325-31.675z"/>
</svg>

<svg width="512" height="512" viewBox="0 0 512 512" fill="none" xmlns="http://www.w3.org/2000/svg">
<path d="M224 16C247.7 16 268.306 28.9 279.406 48H326.719L306.719 98.7187L191.906 144H128V80H64V464H384V336.093L416 254.875V464C416 481.699 401.699 496 384 496H64C46.3 496 32 481.699 32 464V80C32 62.2998 46.3 48 64 48H168.594C179.694 28.9 200.3 16 224 16ZM224 48C206.3 48 192 62.2998 192 80H256C256 62.2998 241.7 48 224 48ZM368 48L399.674 128.325L480 160L399.674 191.675L368 272L336.325 191.675L256 160L336.325 128.325L368 48Z" fill="black"/>
</svg>
